X:684
T:The humours of Kesh
R:Jig
O:Ireland
S:irishf~4.abc, tonyji~1.abc
Z:Transcription:??, chords:Mike Long
M:6/8
L:1/8
K:D
FG|\
"D"A2F AGF|"G"B2G Bcd|"D"AFA dAF|"A"EFE EFG|\
"D"A2F AGF|"G"B2G Bcd|"D"AFA dAF|"A"EFE "D"D:|
|:FG|\
"D"AFA fed|"A/G"cBA "G"GAB|"D"AFA dAF|"A"EFE EFG|\
"D"AFA fed|"A/G"cBA "G"GAB|"D"AFA dAF|"A"EFE "D"D:|
